dist/assets/uwm-icons/icon_linkedin.svg

<?xml version="1.0" encoding="UTF-8"?>
<svg width="24px" height="24px" viewBox="0 0 24 24" version="1.1" xmlns="http://www.w3.org/2000/svg" xmlns:xlink="http://www.w3.org/1999/xlink">
    <!-- Generator: Sketch 48.2 (47327) - http://www.bohemiancoding.com/sketch -->
    <title>icon_linkedin</title>
    <desc>Created with Sketch.</desc>
    <defs></defs>
    <g id="Icons" stroke="none" stroke-width="1" fill="none" fill-rule="evenodd">
        <g id="icon_linkedin">
            <rect id="Rectangle" fill="#FFFFFF" x="0" y="0" width="24" height="24"></rect>
            <path d="M18.2596053,18.0672659 L15.5406829,18.0672659 L15.5406829,13.7183919 C15.5406829,12.6267286 15.1479199,11.8808771 14.1637755,11.8808771 C13.4131418,11.8808771 12.9658035,12.383149 12.7689746,12.8694192 C12.6974005,13.0436586 12.6795069,13.2854603 12.6795069,13.5290399 L12.6795069,18.0672659 L9.96058452,18.0672659 C9.96058452,18.0672659 9.99637159,10.702094 9.96058452,9.93935203 L12.6795069,9.93935203 L12.6795069,11.0896879 C13.0409563,10.5367444 13.6869129,9.74822205 15.1300263,9.74822205 C16.918485,9.74822205 18.2596053,10.9101146 18.2596053,13.4072501 L18.2596053,18.0672659 Z M7.09672449,8.82990913 L7.07883096,8.82990913 C6.16626075,8.82990913 5.57666882,8.20584749 5.57666882,7.42532596 C5.57666882,6.62880284 6.18504896,6.02163177 7.11461802,6.02163177 C8.04508176,6.02163177 8.61678016,6.62880284 8.63556837,7.42532596 C8.63556837,8.20584749 8.04508176,8.82990913 7.09672449,8.82990913 Z M5.73681595,18.0672659 L8.45573836,18.0672659 L8.45573836,9.93935203 L5.73681595,9.93935203 L5.73681595,18.0672659 Z M19.6696158,3 L4.32948954,3 C3.59495999,3 3,3.57694587 3,4.2890162 L3,19.7100948 C3,20.4212762 3.59495999,21 4.32948954,21 L19.6696158,21 C20.40504,21 21,20.4212762 21,19.7100948 L21,4.2890162 C21,3.57694587 20.40504,3 19.6696158,3 Z" id="Fill-179" fill="#000000"></path>
        </g>
    </g>
</svg>

<svg width="24" height="24" xmlns="http://www.w3.org/2000/svg"><g fill="none" fill-rule="evenodd"><path fill="#FFF" d="M0 0h24v24H0z"/><path d="M18.26 18.067h-2.72v-4.349c0-1.091-.392-1.837-1.376-1.837-.75 0-1.198.502-1.395.988-.072.175-.09.416-.09.66v4.538H9.962s.035-7.365 0-8.128h2.719v1.15c.361-.552 1.007-1.34 2.45-1.34 1.788 0 3.13 1.161 3.13 3.658v4.66zM7.097 8.83h-.018c-.913 0-1.502-.624-1.502-1.405 0-.796.608-1.403 1.538-1.403s1.502.607 1.52 1.403c0 .78-.59 1.405-1.538 1.405zm-1.36 9.237h2.719V9.94h-2.72v8.128zM19.67 3H4.33C3.594 3 3 3.577 3 4.289V19.71c0 .711.595 1.29 1.33 1.29h15.34c.735 0 1.33-.579 1.33-1.29V4.29C21 3.577 20.405 3 19.67 3z" fill="#000"/></g></svg>
